X: 744
T: Fasl-ı Nişâburek`i...
C: Ahmet Avni Konuk
O: Turkey
F: http://compmusic.upf.edu/node/140
N: nisaburek--kupe--duyek--fasl-i--ahmet_avni_konuk
N: makam= nisaburek
N: form= kupe
N: usul= duyek = 8/4
M: 8/4
L: 1/16
K: C ^9/8f ^3/4c ^3/4g 
Q: 1/4=57
%%MIDI tuningsystem comma53
z4 d8 e4 e8 =g3f e2f2  | e4 e2=g2 f4 e4 e2d4c2 e2d2 c2B2  | \
w:  Fasl_ ı  Ni şâ  |  *  bu *  *  re ki  *  *  kim   | 
A4 A8 B4 c4 d4 f4 e4  | 
w:  *  gûş  e dip  *  nûş   | 
d4 c8 A4 B4 B2A2 e2d2 c2B2  | c4 e8 f4 f2e2 d2c2 d3c B4  | \
w:  *  et se  mül    |  *  Hük me der  *  *  *  tâ   | 
z4 B2c2 B4 c4 d4 e2d2 c3B A4  | 
w:  semt_ *  *  i  Ni *  *  şâ  | 
z4 A8 B4 c4 d4 f4 e4  | d4 c8 A4 B2A2 B2c2 A6z2  | |


